resources/haticons/SVG/ios_share.svg

<!-- Generated by IcoMoon.io -->
<svg version="1.1" xmlns="http://www.w3.org/2000/svg" width="24" height="24" viewBox="0 0 24 24">
<title>ios_share</title>
<path d="M15.984 5.016l-1.406 1.406-1.594-1.594v11.156h-1.969v-11.156l-1.594 1.594-1.406-1.406 3.984-4.031zM20.016 9.984v11.016q0 0.844-0.586 1.43t-1.43 0.586h-12q-0.844 0-1.43-0.586t-0.586-1.43v-11.016q0-0.797 0.586-1.383t1.43-0.586h3v1.969h-3v11.016h12v-11.016h-3v-1.969h3q0.844 0 1.43 0.586t0.586 1.383z"></path>
</svg>

<svg xmlns="http://www.w3.org/2000/svg" width="24" height="24"><path d="M15.984 5.016l-1.406 1.406-1.594-1.594v11.156h-1.969V4.828L9.421 6.422 8.015 5.016 11.999.985zm4.032 4.968V21q0 .844-.586 1.43t-1.43.586H6q-.844 0-1.43-.586T3.984 21V9.984q0-.797.586-1.383T6 8.015h3v1.969H6V21h12V9.984h-3V8.015h3q.844 0 1.43.586t.586 1.383z"/></svg>
